assets/icons/qvision/emoji_objects.svg

<svg width="24" height="24" viewBox="0 0 24 24" fill="none" xmlns="http://www.w3.org/2000/svg">
<g clip-path="url(#clip0_147_6420)">
<path d="M11.9998 3C11.5398 3 11.0698 3.04 10.5998 3.14C7.83983 3.67 5.63983 5.9 5.11983 8.66C4.63983 11.27 5.59983 13.67 7.33983 15.22C7.76983 15.6 7.99983 16.13 7.99983 16.69V19C7.99983 20.1 8.89983 21 9.99983 21H10.2798C10.6298 21.6 11.2598 22 11.9998 22C12.7398 22 13.3798 21.6 13.7198 21H13.9998C15.0998 21 15.9998 20.1 15.9998 19V16.69C15.9998 16.14 16.2198 15.6 16.6398 15.23C18.0898 13.95 18.9998 12.08 18.9998 10C18.9998 6.13 15.8698 3 11.9998 3ZM13.9998 19H9.99983V18H13.9998V19ZM13.9998 17H9.99983V16H13.9998V17ZM12.4998 11.41V14H11.4998V11.41L9.66983 9.59L10.3798 8.88L11.9998 10.5L13.6198 8.88L14.3298 9.59L12.4998 11.41Z" fill="#323232"/>
</g>
<defs>
<clipPath id="clip0_147_6420">
<rect width="24" height="24" fill="white"/>
</clipPath>
</defs>
</svg>

<svg xmlns="http://www.w3.org/2000/svg" enable-background="new 0 0 24 24" height="24" viewBox="0 0 24 24" width="24"><g><rect fill="none" height="24" width="24"/></g><g><g/><path d="M12,3c-0.46,0-0.93,0.04-1.4,0.14C7.84,3.67,5.64,5.9,5.12,8.66c-0.48,2.61,0.48,5.01,2.22,6.56C7.77,15.6,8,16.13,8,16.69 V19c0,1.1,0.9,2,2,2h0.28c0.35,0.6,0.98,1,1.72,1s1.38-0.4,1.72-1H14c1.1,0,2-0.9,2-2v-2.31c0-0.55,0.22-1.09,0.64-1.46 C18.09,13.95,19,12.08,19,10C19,6.13,15.87,3,12,3z M14,19h-4v-1h4V19z M14,17h-4v-1h4V17z M12.5,11.41V14h-1v-2.59L9.67,9.59 l0.71-0.71L12,10.5l1.62-1.62l0.71,0.71L12.5,11.41z"/></g></svg>
